static/img/card-structure.svg

<svg width="591" height="155" viewBox="0 0 591 155" fill="none" xmlns="http://www.w3.org/2000/svg">
<g clip-path="url(#clip0_39072_3400)">
<g clip-path="url(#clip1_39072_3400)">
<rect x="31" y="31" width="560" height="104" rx="8" fill="white"/>
<mask id="path-3-inside-1_39072_3400" fill="white">
<path d="M31 31H591V63H31V31Z"/>
</mask>
<path d="M591 63V62H31V63V64H591V63Z" fill="#BFBFC3" mask="url(#path-3-inside-1_39072_3400)"/>
<rect width="560" height="40" transform="translate(31 63)" fill="#FBFAFD"/>
<mask id="path-5-inside-2_39072_3400" fill="white">
<path d="M31 103H591V135H31V103Z"/>
</mask>
<path d="M31 103V104H591V103V102H31V103Z" fill="#BFBFC3" mask="url(#path-5-inside-2_39072_3400)"/>
</g>
<rect x="31.5" y="31.5" width="559" height="103" rx="7.5" stroke="#BFBFC3"/>
<circle cx="76" cy="83" r="16" fill="#7B58CF"/>
<circle cx="76" cy="83" r="18" stroke="#7B58CF" stroke-opacity="0.3" stroke-width="4"/>
<path d="M75.8055 89.18C74.5935 89.18 73.6335 88.844 72.9255 88.172C72.2175 87.488 71.8635 86.564 71.8635 85.4H73.4835C73.4835 86.12 73.6935 86.69 74.1135 87.11C74.5335 87.53 75.1035 87.74 75.8235 87.74C76.5435 87.74 77.1135 87.53 77.5335 87.11C77.9535 86.69 78.1635 86.12 78.1635 85.4V84.5C78.1635 83.78 77.9535 83.21 77.5335 82.79C77.1135 82.37 76.5435 82.16 75.8235 82.16H74.4015V80.756L77.6235 77.336H72.2235V75.86H79.4595V77.372L75.8595 81.206V80.72C77.0715 80.72 78.0255 81.062 78.7215 81.746C79.4295 82.418 79.7835 83.336 79.7835 84.5V85.4C79.7835 86.564 79.4235 87.488 78.7035 88.172C77.9955 88.844 77.0295 89.18 75.8055 89.18Z" fill="white"/>
<circle cx="76" cy="31" r="16" fill="#7B58CF"/>
<circle cx="76" cy="31" r="18" stroke="#7B58CF" stroke-opacity="0.3" stroke-width="4"/>
<path d="M72.1515 37V35.506L76.5255 30.826C77.1615 30.154 77.6115 29.554 77.8755 29.026C78.1395 28.498 78.2715 27.982 78.2715 27.478C78.2715 26.758 78.0615 26.188 77.6415 25.768C77.2335 25.336 76.6755 25.12 75.9675 25.12C75.2355 25.12 74.6535 25.342 74.2215 25.786C73.8015 26.218 73.5915 26.806 73.5915 27.55H71.9715C71.9955 26.758 72.1755 26.074 72.5115 25.498C72.8475 24.91 73.3095 24.46 73.8975 24.148C74.4855 23.836 75.1755 23.68 75.9675 23.68C76.7835 23.68 77.4855 23.836 78.0735 24.148C78.6615 24.46 79.1175 24.904 79.4415 25.48C79.7655 26.044 79.9275 26.716 79.9275 27.496C79.9275 28.12 79.7535 28.78 79.4055 29.476C79.0695 30.172 78.4875 30.952 77.6595 31.816L74.1135 35.524H80.0895V37H72.1515Z" fill="white"/>
<circle cx="20" cy="20" r="16" fill="#7B58CF"/>
<circle cx="20" cy="20" r="18" stroke="#7B58CF" stroke-opacity="0.3" stroke-width="4"/>
<path d="M16.2235 26V24.524H19.7875V14.264L16.2235 16.928V15.074L19.1935 12.86H21.4075V24.524H24.3235V26H16.2235Z" fill="white"/>
<circle cx="76" cy="135" r="16" fill="#7B58CF"/>
<circle cx="76" cy="135" r="18" stroke="#7B58CF" stroke-opacity="0.3" stroke-width="4"/>
<path d="M77.8035 141V138.12H71.8635V135.582L76.6515 127.86H78.4875L73.4835 135.942V136.644H77.8035V133.44H79.4235V141H77.8035Z" fill="white"/>
</g>
<defs>
<clipPath id="clip0_39072_3400">
<rect width="591" height="155" fill="white"/>
</clipPath>
<clipPath id="clip1_39072_3400">
<rect x="31" y="31" width="560" height="104" rx="8" fill="white"/>
</clipPath>
</defs>
</svg>

<svg width="591" height="155" fill="none" xmlns="http://www.w3.org/2000/svg"><g clip-path="url(#prefix__prefix__clip0_39072_3400)"><rect x="31" y="31" width="560" height="104" rx="8" fill="#ECECEF"/><path d="M39 67a4 4 0 014-4h536a4 4 0 014 4v32a4 4 0 01-4 4H43a4 4 0 01-4-4V67z" fill="#fff"/><circle cx="76" cy="83" r="16" fill="#7B58CF"/><circle cx="76" cy="83" r="18" stroke="#7B58CF" stroke-opacity=".3" stroke-width="4"/><path d="M75.805 89.18c-1.212 0-2.172-.336-2.88-1.008-.707-.684-1.061-1.608-1.061-2.772h1.62c0 .72.21 1.29.63 1.71.42.42.99.63 1.71.63s1.29-.21 1.71-.63c.42-.42.63-.99.63-1.71v-.9c0-.72-.21-1.29-.63-1.71-.42-.42-.99-.63-1.71-.63h-1.422v-1.404l3.222-3.42h-5.4V75.86h7.236v1.512l-3.6 3.834v-.486c1.212 0 2.165.342 2.862 1.026.708.672 1.062 1.59 1.062 2.754v.9c0 1.164-.36 2.088-1.08 2.772-.708.672-1.674 1.008-2.898 1.008z" fill="#fff"/><circle cx="76" cy="31" r="16" fill="#7B58CF"/><circle cx="76" cy="31" r="18" stroke="#7B58CF" stroke-opacity=".3" stroke-width="4"/><path d="M72.151 37v-1.494l4.374-4.68c.636-.672 1.087-1.272 1.35-1.8.264-.528.397-1.044.397-1.548 0-.72-.21-1.29-.63-1.71-.408-.432-.966-.648-1.674-.648-.733 0-1.315.222-1.746.666-.42.432-.63 1.02-.63 1.764h-1.62c.024-.792.204-1.476.54-2.052a3.41 3.41 0 011.385-1.35c.588-.312 1.278-.468 2.07-.468.817 0 1.519.156 2.106.468a3.325 3.325 0 011.369 1.332c.324.564.486 1.236.486 2.016 0 .624-.174 1.284-.522 1.98-.337.696-.919 1.476-1.747 2.34l-3.546 3.708h5.977V37h-7.94z" fill="#fff"/><circle cx="20" cy="20" r="16" fill="#7B58CF"/><circle cx="20" cy="20" r="18" stroke="#7B58CF" stroke-opacity=".3" stroke-width="4"/><path d="M16.224 26v-1.476h3.564v-10.26l-3.564 2.664v-1.854l2.97-2.214h2.213v11.664h2.916V26h-8.1z" fill="#fff"/><circle cx="76" cy="135" r="16" fill="#7B58CF"/><circle cx="76" cy="135" r="18" stroke="#7B58CF" stroke-opacity=".3" stroke-width="4"/><path d="M77.803 141v-2.88h-5.94v-2.538l4.788-7.722h1.837l-5.004 8.082v.702h4.32v-3.204h1.62V141h-1.62z" fill="#fff"/></g><defs><clipPath id="prefix__prefix__clip0_39072_3400"><path fill="#fff" d="M0 0h591v155H0z"/></clipPath></defs></svg>
